src/front_assets/svg/delete-white.svg

<?xml version="1.0" encoding="utf-8"?><!-- Uploaded to: SVG Repo, www.svgrepo.com, Generator: SVG Repo Mixer Tools -->
<svg width="800px" height="800px" viewBox="0 0 24 24" fill="none" xmlns="http://www.w3.org/2000/svg">
<path d="M10 12V17" stroke="#1C274C" stroke-width="2" stroke-linecap="round" stroke-linejoin="round"/>
<path d="M14 12V17" stroke="#1C274C" stroke-width="2" stroke-linecap="round" stroke-linejoin="round"/>
<path d="M4 7H20" stroke="#1C274C" stroke-width="2" stroke-linecap="round" stroke-linejoin="round"/>
<path d="M6 10V18C6 19.6569 7.34315 21 9 21H15C16.6569 21 18 19.6569 18 18V10" stroke="#1C274C" stroke-width="2" stroke-linecap="round" stroke-linejoin="round"/>
<path d="M9 5C9 3.89543 9.89543 3 11 3H13C14.1046 3 15 3.89543 15 5V7H9V5Z" stroke="#1C274C" stroke-width="2" stroke-linecap="round" stroke-linejoin="round"/>
</svg>

<svg xmlns="http://www.w3.org/2000/svg" width="800" height="800" fill="none" viewBox="0 0 24 24"><path stroke="#1C274C" stroke-linecap="round" stroke-linejoin="round" stroke-width="2" d="M10 12v5M14 12v5M4 7h16M6 10v8a3 3 0 0 0 3 3h6a3 3 0 0 0 3-3v-8M9 5a2 2 0 0 1 2-2h2a2 2 0 0 1 2 2v2H9z"/></svg>
